assets/Hatching chick/Flat/hatching_chick_flat.svg

<svg width="32" height="32" viewBox="0 0 32 32" fill="none" xmlns="http://www.w3.org/2000/svg">
<path d="M2.3696 12.15L8.0196 17.8L10 13.95L8.0196 10H3.2596C2.1396 10 1.5796 11.36 2.3696 12.15Z" fill="#F9C23C"/>
<path d="M29.65 12.15L24 17.8L22.5 14L24 10H28.76C29.88 10 30.44 11.36 29.65 12.15Z" fill="#F9C23C"/>
<path d="M15.9996 2C11.5762 2 7.99957 5.52979 7.99957 9.89531V19H23.9996V9.89531C23.9896 5.52979 20.413 2 15.9996 2Z" fill="#FCD53F"/>
<path d="M11.8696 7.83005C11.8696 8.26083 11.5204 8.61005 11.0896 8.61005C10.6588 8.61005 10.3096 8.26083 10.3096 7.83005C10.3096 7.39927 10.6588 7.05005 11.0896 7.05005C11.5204 7.05005 11.8696 7.39927 11.8696 7.83005Z" fill="#1C1C1C"/>
<path d="M21.7396 7.83005C21.7396 8.26083 21.3904 8.61005 20.9596 8.61005C20.5288 8.61005 20.1796 8.26083 20.1796 7.83005C20.1796 7.39927 20.5288 7.05005 20.9596 7.05005C21.3904 7.05005 21.7396 7.39927 21.7396 7.83005Z" fill="#1C1C1C"/>
<path d="M18 9H14C14 7.89583 14.8935 7 15.9948 7C17.0961 7 18 7.89583 18 9Z" fill="#FF822D"/>
<path d="M28.7896 17.65L25.2796 14.14L21.8196 17.6L16.0196 11.8L10.2196 17.6L6.76958 14.15L3.25958 17.66C3.25958 24.71 8.96958 30.42 16.0196 30.42C23.0596 30.42 28.7696 24.71 28.7796 17.67L28.7896 17.65Z" fill="#D3D3D3"/>
</svg>

<svg xmlns="http://www.w3.org/2000/svg" width="32" height="32" fill="none"><path fill="#F9C23C" d="m2.37 12.15 5.65 5.65L10 13.95 8.02 10H3.26c-1.12 0-1.68 1.36-.89 2.15ZM29.65 12.15 24 17.8 22.5 14l1.5-4h4.76c1.12 0 1.68 1.36.89 2.15Z"/><path fill="#FCD53F" d="M16 2c-4.424 0-8 3.53-8 7.895V19h16V9.895C23.99 5.53 20.413 2 16 2Z"/><path fill="#1C1C1C" d="M11.87 7.83a.78.78 0 1 1-1.56 0 .78.78 0 0 1 1.56 0ZM21.74 7.83a.78.78 0 1 1-1.56 0 .78.78 0 0 1 1.56 0Z"/><path fill="#FF822D" d="M18 9h-4c0-1.104.893-2 1.995-2C17.096 7 18 7.896 18 9Z"/><path fill="#D3D3D3" d="m28.79 17.65-3.51-3.51-3.46 3.46-5.8-5.8-5.8 5.8-3.45-3.45-3.51 3.51c0 7.05 5.71 12.76 12.76 12.76 7.04 0 12.75-5.71 12.76-12.75l.01-.02Z"/></svg>
